svgs/sharp-regular/bore-hole.svg

<svg xmlns="http://www.w3.org/2000/svg" viewBox="0 0 512 512"><!--! Font Awesome Pro 6.6.0 by @fontawesome - https://fontawesome.com License - https://fontawesome.com/license (Commercial License) Copyright 2024 Fonticons, Inc. --><path d="M280 24l0 204.7c23.5 9.5 40 32.5 40 59.3c0 35.3-28.7 64-64 64s-64-28.7-64-64c0-26.9 16.5-49.9 40-59.3L232 24l0-24 48 0 0 24zM240 288a16 16 0 1 0 32 0 16 16 0 1 0 -32 0zM464 176l-64 0 0 112c0 79.5-64.5 144-144 144s-144-64.5-144-144l0-112-64 0 0 288 416 0 0-288zM112 128l48 0 0 48 0 112c0 53 43 96 96 96s96-43 96-96l0-112 0-48 48 0 64 0 48 0 0 48 0 288 0 48-48 0L48 512 0 512l0-48L0 176l0-48 48 0 64 0z"/></svg>

<svg xmlns="http://www.w3.org/2000/svg" viewBox="0 0 512 512"><!--! Font Awesome Pro 6.4.0 by @fontawesome - https://fontawesome.com License - https://fontawesome.com/license (Commercial License) Copyright 2023 Fonticons, Inc. --><path d="M280 24V228.7c23.5 9.5 40 32.5 40 59.3c0 35.3-28.7 64-64 64s-64-28.7-64-64c0-26.9 16.5-49.9 40-59.3V24 0h48V24zM240 288a16 16 0 1 0 32 0 16 16 0 1 0 -32 0zM464 176H400V288c0 79.5-64.5 144-144 144s-144-64.5-144-144V176H48V464H464V176zM112 128h48v48V288c0 53 43 96 96 96s96-43 96-96V176 128h48 64 48v48V464v48H464 48 0V464 176 128H48h64z"/></svg>
